public/svg/eaves2.svg

<svg width="96" height="100" viewBox="0 0 96 100" fill="none" xmlns="http://www.w3.org/2000/svg">
<path d="M15.5466 49.2562L15.5462 49.255C12.5156 41.92 14.503 31.841 19.1065 22.8484C23.7071 13.8615 30.8263 6.14619 37.8173 3.4897C39.9377 2.69108 41.8336 3.62275 42.9995 5.27517C44.1778 6.94515 44.5241 9.24148 43.5899 10.9895C41.7365 14.3595 39.2566 17.4365 36.6512 20.4757C36.0987 21.1202 35.54 21.7635 34.9807 22.4076C32.9125 24.7893 30.8353 27.1813 29.0291 29.6786L29.0285 29.6794C24.5052 35.9602 20.5277 42.6166 17.1398 49.5758C16.9536 49.9018 16.6695 49.9871 16.3573 49.9193C16.0089 49.8437 15.6791 49.579 15.5466 49.2562Z" fill="#3A3C51" stroke="black"/>
<path d="M56.4978 39.5754C60.3839 38.4953 64.2944 39.1021 67.8185 42.282C68.2723 42.7531 68.6136 43.3211 68.8164 43.9431C69.0209 44.5702 69.0794 45.2357 68.9873 45.8889C68.8953 46.5421 68.6552 47.1655 68.2854 47.7117C67.9156 48.2579 67.4258 48.7123 66.8535 49.0403L66.8415 49.0472L66.83 49.0547C64.8987 50.3081 62.9209 51.4674 60.9308 52.6338C60.2959 53.006 59.6596 53.3789 59.0233 53.7558C56.3998 55.3098 53.7852 56.926 51.3049 58.8145L51.6071 59.2115L51.3052 58.8143C51.2182 58.8804 51.13 58.9474 51.0406 59.0153C48.9649 60.5921 46.2772 62.6338 43.8274 64.8894C41.2818 67.2332 38.94 69.8546 37.8233 72.4748L37.8233 72.4749C37.5888 73.0253 36.9842 73.2816 36.2996 73.1839C35.6086 73.0854 35.0661 72.6564 34.9621 72.0928C34.3569 68.7342 35.1939 64.3729 37.0723 59.8871C38.946 55.4128 41.8311 50.8742 45.2445 47.1803C48.6628 43.4812 52.577 40.6652 56.4978 39.5754Z" fill="#3A3C51" stroke="black"/>
<path d="M70.1149 63.9101L70.1153 63.9099C72.9093 62.5793 77.8164 60.8977 82.426 60.5717C87.0694 60.2433 91.1575 61.2944 92.7371 65.1167L92.7377 65.1181C93.5233 67.0027 93.2912 68.3645 92.5338 69.41C91.7453 70.4985 90.3309 71.3244 88.5923 71.9665C86.8658 72.6041 84.8932 73.0345 83.0654 73.3784C82.5208 73.4808 81.9852 73.5761 81.4727 73.6674C80.2898 73.8779 79.2296 74.0666 78.465 74.2706L78.4649 74.2706C73.8407 75.5054 69.6107 77.7889 65.4612 80.0289C65.2963 80.1179 65.1316 80.2069 64.967 80.2957C60.6383 82.6304 56.3815 84.8718 51.7446 85.9017L51.7445 85.9016L51.7354 85.9038C51.3828 85.9891 51.013 85.9704 50.6709 85.8499C50.3287 85.7293 50.0288 85.5122 49.8074 85.2248C49.5861 84.9373 49.4528 84.5919 49.4238 84.2303C49.3947 83.8687 49.4711 83.5064 49.6436 83.1873L49.6555 83.1654L49.6651 83.1424C51.3538 79.1054 54.4868 75.2344 58.2035 71.8953C61.9171 68.559 66.1875 65.7771 70.1149 63.9101Z" fill="#3A3C51" stroke="black"/>
</svg>

<svg xmlns="http://www.w3.org/2000/svg" width="96" height="100" fill="#3a3c51" stroke="#000" xmlns:v="https://vecta.io/nano"><path d="M15.547 49.256v-.001c-3.03-7.335-1.043-17.414 3.56-26.407 4.6-8.987 11.72-16.702 18.7-19.36 2.12-.8 4.016.133 5.182 1.785 1.178 1.67 1.525 3.966.6 5.714-1.853 3.37-4.333 6.447-6.94 9.486l-1.67 1.932c-2.068 2.382-4.145 4.774-5.952 7.27h-.001a135.82 135.82 0 0 0-11.89 19.896c-.186.326-.47.4-.783.343-.348-.076-.678-.34-.8-.663zm40.95-9.68c3.886-1.08 7.797-.473 11.32 2.707a4.33 4.33 0 0 1 .998 1.661 4.32 4.32 0 0 1 .17 1.946 4.33 4.33 0 0 1-2.134 3.151l-.012.007-.01.008c-1.93 1.253-3.9 2.413-5.9 3.58l-1.907 1.122c-2.623 1.554-5.238 3.17-7.718 5.06l.302.397-.302-.397-.265.2c-2.076 1.577-4.763 3.618-7.213 5.874-2.546 2.344-4.887 4.965-6.004 7.585h0c-.235.55-.84.807-1.524.7-.7-.098-1.233-.527-1.337-1.1-.605-3.36.232-7.72 2.1-12.206a44.63 44.63 0 0 1 8.172-12.707c3.418-3.7 7.332-6.515 11.253-7.605zM70.115 63.9h0c2.794-1.33 7.7-3.012 12.3-3.338 4.643-.328 8.73.723 10.3 4.545l.001.001c.786 1.885.553 3.246-.204 4.292-.788 1.1-2.203 1.914-3.942 2.557-1.727.638-3.7 1.068-5.527 1.412l-1.593.3c-1.183.2-2.243.4-3.008.603h0C73.84 75.505 69.6 77.8 65.46 80.03l-.494.267c-4.33 2.335-8.585 4.576-13.222 5.606h0l-.01.002c-.353.085-.722.067-1.064-.054a1.88 1.88 0 0 1-.864-.625 1.89 1.89 0 0 1-.384-.995c-.03-.362.047-.724.22-1.043l.012-.022.01-.023c1.7-4.037 4.822-7.908 8.538-11.247s7.984-6.118 11.9-7.985z"/></svg>
